X: 1
T: Jig'gery-pokery
M: 6/8
L: 1/8
R: jig
K: Dmix
|:DFA GFG|cBA GAF|DFA GFG|cBA G2A:|
|:fef gfg|age fed|1cBc def|_Bc_B A3:|2=cB=c d^cd|efe d3||
